icons/editor-eraser-1-filled.svg

<svg width="25" height="24" viewBox="0 0 25 24" fill="none" xmlns="http://www.w3.org/2000/svg">
<g id="eraser-01">
<path id="Icon" d="M20.4285 21.3411H7.99886L3.47898 16.8212C3.26852 16.6095 3.15039 16.3231 3.15039 16.0245C3.15039 15.726 3.26852 15.4396 3.47898 15.2279L14.7787 3.9282C14.9904 3.71774 15.2768 3.59961 15.5753 3.59961C15.8738 3.59961 16.1602 3.71774 16.3719 3.9282L22.0218 9.57805C22.2323 9.78977 22.3504 10.0762 22.3504 10.3747C22.3504 10.6732 22.2323 10.9596 22.0218 11.1713L18.1504 15.0427M11.8521 21.3411L18.1504 15.0427M10.6622 8.04472L18.1504 15.0427" stroke="black" stroke-width="2" stroke-linecap="round" stroke-linejoin="round"/>
</g>
</svg>

<svg xmlns="http://www.w3.org/2000/svg" width="25" height="24" fill="none" viewBox="0 0 25 24"><path stroke="currentColor" stroke-linecap="round" stroke-linejoin="round" stroke-width="2" d="M20.429 21.341H7.999l-4.52-4.52a1.13 1.13 0 0 1 0-1.593l11.3-11.3a1.13 1.13 0 0 1 1.593 0l5.65 5.65a1.13 1.13 0 0 1 0 1.593l-3.872 3.872m-6.298 6.298 6.298-6.298m-7.488-6.998 7.488 6.998"/></svg>
